learning-site/svg (99).svg

<svg xmlns="http://www.w3.org/2000/svg" xmlns:xlink="http://www.w3.org/1999/xlink" viewBox="0 0 100 100" version="1.1"><!-- Generator: Sketch 51.3 (57544) - http://www.bohemiancoding.com/sketch --><title>enable-reliable-messaging-for-big-data-apps-using-azure-event-hubs</title><desc>Created with Sketch.</desc><defs><rect id="path-1" x="0" y="0" width="96" height="96" rx="48"></rect><filter x="-1.8%" y="-1.3%" width="103.5%" height="105.1%" filterUnits="objectBoundingBox" id="filter-3"><feOffset dx="0" dy="2" in="SourceAlpha" result="shadowOffsetOuter1"></feOffset><feColorMatrix values="0 0 0 0 0   0 0 0 0 0   0 0 0 0 0  0 0 0 0.10399683 0" type="matrix" in="shadowOffsetOuter1" result="shadowMatrixOuter1"></feColorMatrix><feMerge><feMergeNode in="shadowMatrixOuter1"></feMergeNode><feMergeNode in="SourceGraphic"></feMergeNode></feMerge></filter></defs><g id="Badges-FINAL" stroke="none" stroke-width="1" fill="none" fill-rule="evenodd"><g id="Connecting-Web-&amp;-Services" transform="translate(-578.000000, -1080.000000)"><g id="enable-reliable-messaging-for-big-data-apps-using-azure-event-hubs" transform="translate(578.000000, 1080.000000)"><g id="Mask" transform="translate(2.000000, 2.000000)"><mask id="mask-2" fill="white"><use xlink:href="#path-1"></use></mask><use id="BG" fill="#55A2FF" xlink:href="#path-1"></use><g id="enable-reliable-messaging-for-big-data-apps-using-azure-event-hubs" filter="url(#filter-3)" mask="url(#mask-2)"><g transform="translate(13.000000, 18.000000)"><path d="M19.2923077,19.7230769 L28.5230769,13.9307692 L48.3461538,4.28461538 C48.3461538,4.28461538 53.0230769,1.43846154 54.1384615,3.16923077 C54.1384615,3.16923077 58.1,5.91538462 50.0769231,12.8230769 C42.0538462,19.7307692 38.9,22.5692308 38.9,22.5692308 L48.6538462,16.6923077 C48.6538462,16.6923077 53.3307692,11.6153846 55.5769231,13.2384615 C57.8230769,14.8615385 55.9846154,18.0153846 55.9846154,18.0153846 C53.4050931,21.2141017 50.5756914,24.2029788 47.5230769,26.9538462 C41.9384615,32.1384615 42.3384615,34.2692308 42.3384615,34.2692308 L49.5538462,27.6692308 C49.5538462,27.6692308 53.2076923,24.5923077 54.4307692,26.0461538 C55.1452009,27.0109462 55.3353349,28.2669825 54.9384615,29.4 C53.7272657,31.7956964 51.9041025,33.8285102 49.6538462,35.2923077 C46.2,37.3230769 36.8538462,50.3307692 36.8538462,50.3307692 C36.8538462,50.3307692 34.1076923,53.5846154 32.1769231,53.8846154 C30.2461538,54.1846154 12.1769231,49.4153846 12.1769231,49.4153846 L19.2923077,19.7230769 Z" id="Shape" fill="#F7C49C" fill-rule="nonzero"></path><path d="M12.1769231,49.1923077 L10.8307692,31.9846154 L13.5230769,17.7538462 L16.9846154,9.1 C16.9846154,9.1 17.6615385,4.77692308 18.6230769,4.48461538 C19.5846154,4.19230769 20.5461538,5.63846154 20.5461538,5.63846154 C20.5461538,5.63846154 23.8153846,8.52307692 20.1615385,20.2538462 L21.8,30.0615385 L22.9538462,40.1615385 C22.9538462,40.1615385 19.7769231,51.8846154 12.1769231,49.1923077 Z" id="Shape" fill="#FED6B5" fill-rule="nonzero"></path><polygon id="Shape" fill="#FDB82C" fill-rule="evenodd" points="9.42307692 47.9769231 34.8692308 52.9076923 33.6846154 59.1307692 7.94615385 53.7692308"></polygon><rect id="Rectangle-path" fill="#DBDBDB" fill-rule="nonzero" x="20.4" y="0.5" width="31.1538462" height="52.7076923" rx="2.06153846"></rect><rect id="Rectangle-path" fill="#FFFFFF" fill-rule="nonzero" x="23.2076923" y="4.70769231" width="25.6" height="46.1769231"></rect><circle id="Oval" fill="#A5A4A4" fill-rule="nonzero" cx="35.9769231" cy="2.61538462" r="1.15384615"></circle><path d="M36.6307692,9.32307692 L32.2076923,9.32307692 C28.9162137,9.30236019 26.0033208,11.4495007 25.0491926,14.5997229 C24.0950643,17.7499451 25.3270899,21.1524839 28.0769231,22.9615385 L25.7692308,26.1769231 L31.4692308,23.7153846 L31.1538462,22.7846154 C32.2620955,20.5271877 34.5544504,19.093348 37.0692308,19.0846154 L41,19.0846154 C41.8689241,19.0842041 42.7292353,19.2567894 43.5307692,19.5923077 C43.9016955,18.6973413 44.0925144,17.7380192 44.0923077,16.7692308 C44.0796019,12.6561037 40.7439137,9.32729329 36.6307692,9.32307692 Z" id="Shape" fill="#EAE9E8" fill-rule="nonzero"></path><path d="M43.5153846,19.5923077 C42.3629321,22.3797434 39.6470405,24.2004528 36.6307692,24.2076923 L32.2076923,24.2076923 C31.6906336,24.2077986 31.1749906,24.1536561 30.6692308,24.0461538 C30.5277819,24.583491 30.4554037,25.136667 30.4538462,25.6923077 C30.4665066,29.3363784 33.4174678,32.2873395 37.0615385,32.3 L40.9923077,32.3 C44.6363784,32.2873395 47.5873395,29.3363784 47.6,25.6923077 C47.590959,23.0219963 45.9810023,20.6176731 43.5153846,19.5923077 Z" id="Shape" fill="#DBDAD9" fill-rule="nonzero"></path><path d="M36.6307692,24.2076923 C39.6470405,24.2004528 42.3629321,22.3797434 43.5153846,19.5923077 C42.7138507,19.2567894 41.8535394,19.0842041 40.9846154,19.0846154 L37.0615385,19.0846154 C34.0516353,19.0959314 31.4269283,21.1331589 30.6692308,24.0461538 C31.1749906,24.1536561 31.6906336,24.2077986 32.2076923,24.2076923 L36.6307692,24.2076923 Z" id="Shape" fill="#BAB9B9" fill-rule="nonzero"></path><path d="M31.4230769,39.0461538 L31.4230769,46.9 C31.4230769,47.4267947 30.9960255,47.8538462 30.4692308,47.8538462 L26.5846154,47.8538462 C26.0578207,47.8538462 25.6307692,47.4267947 25.6307692,46.9 L25.6307692,47.5076923 C25.6135852,47.7582016 25.7018354,48.0044996 25.8742022,48.1870916 C26.0465691,48.3696836 26.2873785,48.4719656 26.5384615,48.4692308 L35.8461538,48.4692308 C36.3729485,48.4692308 36.8,48.0421793 36.8,47.5153846 L36.8,39.4692308 L31.4230769,39.0461538 Z" id="Shape" fill="#192A36" fill-rule="nonzero"></path><path d="M31.4230769,39.5615385 L31.4230769,39.0461538 L25.6307692,39.2538462 L25.6307692,46.9 C25.6307692,47.4267947 26.0578207,47.8538462 26.5846154,47.8538462 L30.4769231,47.8538462 C31.0037178,47.8538462 31.4307692,47.4267947 31.4307692,46.9 L31.4307692,42.1461538 C31.4307692,41.7213194 31.7751656,41.3769231 32.2,41.3769231 L35.7692308,41.3769231 C36.0343032,41.3915586 36.2940539,41.2985346 36.4895704,41.1189491 C36.6850868,40.9393637 36.7997999,40.6884358 36.8076923,40.4230769 L36.8076923,39.5615385 L31.4230769,39.5615385 Z" id="Shape" fill="#30404C" fill-rule="nonzero"></path><rect id="Rectangle-path" fill="#546670" fill-rule="nonzero" x="25.5769231" y="37.9769231" width="11.2153846" height="3.13076923" rx="1.56538462"></rect><path d="M34.5461538,36.2538462 L34.5461538,39 C34.7148354,39.0159442 34.8791256,39.0628843 35.0307692,39.1384615 L35.0307692,36.1538462 C34.9726222,34.9188983 34.3530615,33.7783029 33.3487544,33.0573004 C32.3444473,32.3362978 31.0656176,32.1140189 29.8769231,32.4538462 C31.0122091,32.2705541 32.1717285,32.5809076 33.063665,33.3067999 C33.9556015,34.0326922 34.495016,35.1049966 34.5461538,36.2538462 Z" id="Shape" fill="#BABABA" fill-rule="nonzero"></path><path d="M28.4461538,39.8307692 L28.4461538,39.2076923 C28.4461538,39.3384615 28.4461538,39.5923077 28.4461538,39.8307692 Z" id="Shape" fill="none"></path><path d="M27.9538462,37 C27.9538462,36.8769231 27.9538462,36.7923077 27.9538462,36.7384615 C27.9538462,36.6846154 27.9538462,36.8769231 27.9538462,37 Z" id="Shape" fill="none"></path><path d="M27.9615385,39 C27.9615385,38.3692308 27.9615385,37.6 27.9615385,37.1384615 C27.9538462,37.5692308 27.9615385,38.3384615 27.9615385,39 Z" id="Shape" fill="none"></path><path d="M27.9538462,36.6923077 L27.9538462,36.7461538 C27.9538462,36.8 27.9538462,36.8923077 27.9538462,37.0076923 L27.9538462,37.1153846 C27.9538462,37.5846154 27.9538462,38.3461538 27.9538462,38.9769231 C27.9538462,39.1923077 27.9538462,39.5384615 27.9538462,39.8461538 L28.4384615,39.8461538 C28.4384615,39.6076923 28.4384615,39.3615385 28.4384615,39.2230769 C28.4384615,38.2692308 28.4384615,36.6615385 28.4384615,36.5923077 C28.4379696,35.4429032 29.181627,34.4254305 30.2769231,34.0769231 C28.952871,34.236333 27.9559488,35.3586957 27.9538462,36.6923077 Z" id="Shape" fill="#BABABA" fill-rule="nonzero"></path><path d="M34.5461538,36.2538462 C34.495016,35.1049966 33.9556015,34.0326922 33.063665,33.3067999 C32.1717285,32.5809076 31.0122091,32.2705541 29.8769231,32.4538462 C28.1261726,32.9464167 26.9163032,34.5428158 26.9153846,36.3615385 C26.9153846,36.4384615 26.9153846,37.8461538 26.9153846,39.1615385 L26.9153846,39.8307692 L27.9461538,39.8307692 C27.9461538,39.5230769 27.9461538,39.1923077 27.9461538,39.0076923 L27.9461538,39 C27.9461538,38.3692308 27.9461538,37.6 27.9461538,37.1384615 L27.9461538,37 C27.9461538,36.8769231 27.9461538,36.7923077 27.9461538,36.7384615 L27.9461538,36.6923077 C27.9472925,35.3638788 28.935897,34.2434604 30.2538462,34.0769231 C31.0325331,33.8272862 31.8830277,33.9539384 32.5551909,34.4196299 C33.227354,34.8853214 33.6447489,35.6370949 33.6846154,36.4538462 L33.6846154,39.1461538 C33.9018166,39.0389716 34.1426725,38.988683 34.3846154,39 L34.5538462,39 L34.5538462,36.2538462 L34.5461538,36.2538462 Z" id="Shape" fill="#BABABA" fill-rule="nonzero"></path><path d="M26.9307692,39.1615385 C26.7359768,39.2293272 26.6054329,39.4129799 26.6054329,39.6192308 C26.6054329,39.8254816 26.7359768,40.0091344 26.9307692,40.0769231 C26.9307692,39.7846154 26.9307692,39.4230769 26.9307692,39.2230769 L26.9307692,39.1615385 Z" id="Shape" fill="#273743" fill-rule="nonzero"></path><path d="M28.4461538,39.8307692 L28.4461538,40.0153846 C28.575067,39.9298733 28.6525673,39.785465 28.6525673,39.6307692 C28.6525673,39.4760734 28.575067,39.3316652 28.4461538,39.2461538 L28.4461538,39.8692308 L28.4461538,39.8307692 Z" id="Shape" fill="#273743" fill-rule="nonzero"></path><path d="M27.9692308,39.8307692 L27.9692308,40.2153846 C28.143679,40.1857485 28.3092722,40.1174084 28.4538462,40.0153846 L28.4538462,39.8307692 L27.9692308,39.8307692 Z" id="Shape" fill="#BABABA" fill-rule="nonzero"></path><path d="M27.9692308,40.2230769 L27.9692308,39.8384615 L26.9384615,39.8384615 L26.9384615,39.2230769 C26.9384615,39.4230769 26.9384615,39.7846154 26.9384615,40.0769231 C27.1571176,40.1980309 27.4039457,40.2590744 27.6538462,40.2538462 C27.7597311,40.2540006 27.8653723,40.2436942 27.9692308,40.2230769 Z" id="Shape" fill="#BABABA" fill-rule="nonzero"></path><path d="M33.7076923,39.1461538 C33.5054412,39.2153521 33.369551,39.4054695 33.369551,39.6192308 C33.369551,39.8329921 33.5054412,40.0231095 33.7076923,40.0923077 L33.7076923,39.1461538 Z" id="Shape" fill="#273743" fill-rule="nonzero"></path><path d="M35.4230769,39.6153846 C35.4002214,39.3933752 35.254512,39.2030609 35.0461538,39.1230769 L35.0461538,40.1 C35.2522425,40.021264 35.3974931,39.8345133 35.4230769,39.6153846 Z" id="Shape" fill="#273743" fill-rule="nonzero"></path><path d="M35.0384615,39.8307692 L35.0384615,39.1230769 C34.8868179,39.0474997 34.7225277,39.0005596 34.5538462,38.9846154 L34.5538462,39.8307692 L35.0384615,39.8307692 Z" id="Shape" fill="#BABABA" fill-rule="nonzero"></path><path d="M34.5615385,39.8307692 L34.5615385,40.2384615 C34.7302201,40.2225173 34.8945103,40.1755772 35.0461538,40.1 L35.0461538,39.8307692 L34.5615385,39.8307692 Z" id="Shape" fill="#BABABA" fill-rule="nonzero"></path><path d="M34.5615385,39.8307692 L34.5615385,39 L34.3846154,39 C34.1465234,38.9960364 33.9112069,39.0515605 33.7,39.1615385 L33.7,39.8538462 L34.5615385,39.8307692 Z" id="Shape" fill="#BABABA" fill-rule="nonzero"></path><path d="M34.5615385,40.2461538 L34.5615385,39.8384615 L33.7076923,39.8384615 L33.7076923,40.0923077 C33.9188992,40.2022856 34.1542157,40.2578097 34.3923077,40.2538462 L34.5615385,40.2461538 Z" id="Shape" fill="#BABABA" fill-rule="nonzero"></path><circle id="Oval" fill="#0078D7" fill-rule="nonzero" cx="29.4230769" cy="16.7692308" r="1.68461538"></circle><circle id="Oval" fill="#0078D7" fill-rule="nonzero" cx="34.4230769" cy="16.7692308" r="1.68461538"></circle><circle id="Oval" fill="#0078D7" fill-rule="nonzero" cx="39.4230769" cy="16.7692308" r="1.68461538"></circle><circle id="Oval" fill="#0078D7" fill-rule="nonzero" cx="43.4615385" cy="25.6923077" r="1.49230769"></circle><circle id="Oval" fill="#0078D7" fill-rule="nonzero" cx="39.0230769" cy="25.6923077" r="1.49230769"></circle><circle id="Oval" fill="#0078D7" fill-rule="nonzero" cx="34.5923077" cy="25.6923077" r="1.49230769"></circle><polygon id="Shape" fill="#DBDAD9" fill-rule="nonzero" points="44.0923077 30.4307692 46.6461538 34.0461538 40.2923077 31.4846154"></polygon><path d="M20.5461538,5.63846154 C20.5461538,5.63846154 24.3923077,10.1615385 20.1615385,20.2538462 C15.9307692,30.3461538 20.5461538,5.63846154 20.5461538,5.63846154 Z" id="Shape" fill="#FED6B5" fill-rule="evenodd"></path><polygon id="Shape" fill="#E5A128" fill-rule="evenodd" points="33.8153846 58.3615385 31.2846154 79 0.9 79 8.07692308 53"></polygon></g></g></g><g id="Azure-Border" stroke="#0078D4" stroke-width="4"><rect x="2" y="2" width="96" height="96" rx="48"></rect></g></g></g></g></svg>

<svg xmlns="http://www.w3.org/2000/svg" xmlns:xlink="http://www.w3.org/1999/xlink" viewBox="0 0 100 100"><defs><rect id="a" x="0" y="0" width="96" height="96" rx="48"/><filter x="-1.8%" y="-1.3%" width="103.5%" height="105.1%" filterUnits="objectBoundingBox" id="b"><feOffset dy="2" in="SourceAlpha" result="shadowOffsetOuter1"/><feColorMatrix values="0 0 0 0 0 0 0 0 0 0 0 0 0 0 0 0 0 0 0.10399683 0" in="shadowOffsetOuter1" result="shadowMatrixOuter1"/><feMerge><feMergeNode in="shadowMatrixOuter1"/><feMergeNode in="SourceGraphic"/></feMerge></filter></defs><g fill="none" fill-rule="evenodd"><g transform="translate(2 2)"><mask id="c" fill="#fff"><use xlink:href="#a"/></mask><use fill="#55A2FF" xlink:href="#a"/><g filter="url(#b)" mask="url(#c)"><g transform="translate(13 18)"><path d="M19.292 19.723l9.231-5.792 19.823-9.646s4.677-2.847 5.792-1.116c0 0 3.962 2.746-4.061 9.654C42.054 19.731 38.9 22.57 38.9 22.57l9.754-5.877s4.677-5.077 6.923-3.454c2.246 1.624.408 4.777.408 4.777a77.638 77.638 0 0 1-8.462 8.939c-5.585 5.184-5.185 7.315-5.185 7.315l7.216-6.6s3.654-3.077 4.877-1.623c.714.965.904 2.221.507 3.354a15.223 15.223 0 0 1-5.284 5.892c-3.454 2.031-12.8 15.039-12.8 15.039s-2.746 3.254-4.677 3.554c-1.93.3-20-4.47-20-4.47l7.115-29.692z" fill="#F7C49C" fill-rule="nonzero"/><path d="M12.177 49.192L10.83 31.985l2.692-14.231L16.985 9.1s.677-4.323 1.638-4.615c.962-.293 1.923 1.153 1.923 1.153s3.27 2.885-.384 14.616l1.638 9.808 1.154 10.1s-3.177 11.723-10.777 9.03z" fill="#FED6B5" fill-rule="nonzero"/><path fill="#FDB82C" d="M9.423 47.977l25.446 4.93-1.184 6.224-25.739-5.362z"/><rect fill="#DBDBDB" fill-rule="nonzero" x="20.4" y=".5" width="31.154" height="52.708" rx="2.062"/><path fill="#FFF" fill-rule="nonzero" d="M23.208 4.708h25.6v46.177h-25.6z"/><circle fill="#A5A4A4" fill-rule="nonzero" cx="35.977" cy="2.615" r="1.154"/><path d="M36.63 9.323h-4.422a7.43 7.43 0 0 0-4.131 13.639l-2.308 3.215 5.7-2.462-.315-.93a6.615 6.615 0 0 1 5.915-3.7H41c.869 0 1.73.172 2.53.507a7.37 7.37 0 0 0 .562-2.823 7.47 7.47 0 0 0-7.461-7.446z" fill="#EAE9E8" fill-rule="nonzero"/><path d="M43.515 19.592a7.47 7.47 0 0 1-6.884 4.616h-4.423a7.392 7.392 0 0 1-1.539-.162 6.538 6.538 0 0 0-.215 1.646 6.63 6.63 0 0 0 6.608 6.608h3.93a6.63 6.63 0 0 0 6.608-6.608 6.63 6.63 0 0 0-4.085-6.1z" fill="#DBDAD9" fill-rule="nonzero"/><path d="M36.63 24.208a7.47 7.47 0 0 0 6.885-4.616 6.546 6.546 0 0 0-2.53-.507h-3.923a6.63 6.63 0 0 0-6.393 4.961 7.392 7.392 0 0 0 1.539.162h4.423z" fill="#BAB9B9" fill-rule="nonzero"/><path d="M31.423 39.046V46.9a.954.954 0 0 1-.954.954h-3.884a.954.954 0 0 1-.954-.954v.608a.9.9 0 0 0 .907.961h9.308a.954.954 0 0 0 .954-.954V39.47l-5.377-.423z" fill="#192A36" fill-rule="nonzero"/><path d="M31.423 39.562v-.516l-5.792.208V46.9c0 .527.427.954.954.954h3.892a.954.954 0 0 0 .954-.954v-4.754a.77.77 0 0 1 .769-.77h3.57a.985.985 0 0 0 1.038-.953v-.861h-5.385z" fill="#30404C" fill-rule="nonzero"/><rect fill="#546670" fill-rule="nonzero" x="25.577" y="37.977" width="11.215" height="3.131" rx="1.565"/><path d="M34.546 36.254V39c.169.016.333.063.485.138v-2.984a4.046 4.046 0 0 0-5.154-3.7 4.03 4.03 0 0 1 4.67 3.8z" fill="#BABABA" fill-rule="nonzero"/><path d="M28.446 39.83v-.622.623zM27.954 37v-.262V37zM27.962 39v-1.862c-.008.431 0 1.2 0 1.862z"/><path d="M27.954 36.692V39.847h.484v-.624-2.63c0-1.15.744-2.168 1.839-2.516a2.638 2.638 0 0 0-2.323 2.615z" fill="#BABABA" fill-rule="nonzero"/><path d="M34.546 36.254a4.03 4.03 0 0 0-4.67-3.8 4.062 4.062 0 0 0-2.96 3.908v3.469h1.03V39v-2-.308a2.638 2.638 0 0 1 2.308-2.615 2.63 2.63 0 0 1 3.43 2.377v2.692a1.43 1.43 0 0 1 .7-.146h.17v-2.746h-.008z" fill="#BABABA" fill-rule="nonzero"/><path d="M26.93 39.162a.485.485 0 0 0 0 .915v-.915zM28.446 39.83v.185a.462.462 0 0 0 0-.769v.623-.038z" fill="#273743" fill-rule="nonzero"/><path d="M27.97 39.83v.385c.174-.03.34-.098.484-.2v-.184h-.485z" fill="#BABABA" fill-rule="nonzero"/><path d="M27.97 40.223v-.385h-1.032v-.615.854c.22.121.466.182.716.177.106 0 .211-.01.315-.03z" fill="#BABABA" fill-rule="nonzero"/><path d="M33.708 39.146a.5.5 0 0 0 0 .946v-.946zM35.423 39.615a.592.592 0 0 0-.377-.492v.977a.592.592 0 0 0 .377-.485z" fill="#273743" fill-rule="nonzero"/><path d="M35.038 39.83v-.707a1.377 1.377 0 0 0-.484-.138v.846h.484z" fill="#BABABA" fill-rule="nonzero"/><path d="M34.562 39.83v.408c.168-.015.333-.062.484-.138v-.27h-.484zM34.562 39.83V39h-.177a1.43 1.43 0 0 0-.685.162v.692l.862-.023z" fill="#BABABA" fill-rule="nonzero"/><path d="M34.562 40.246v-.408h-.854v.254c.21.11.446.166.684.162l.17-.008z" fill="#BABABA" fill-rule="nonzero"/><circle fill="#0078D7" fill-rule="nonzero" cx="29.423" cy="16.769" r="1.685"/><circle fill="#0078D7" fill-rule="nonzero" cx="34.423" cy="16.769" r="1.685"/><circle fill="#0078D7" fill-rule="nonzero" cx="39.423" cy="16.769" r="1.685"/><circle fill="#0078D7" fill-rule="nonzero" cx="43.462" cy="25.692" r="1.492"/><circle fill="#0078D7" fill-rule="nonzero" cx="39.023" cy="25.692" r="1.492"/><circle fill="#0078D7" fill-rule="nonzero" cx="34.592" cy="25.692" r="1.492"/><path fill="#DBDAD9" fill-rule="nonzero" d="M44.092 30.43l2.554 3.616-6.354-2.561z"/><path d="M20.546 5.638s3.846 4.524-.384 14.616c-4.231 10.092.384-14.616.384-14.616z" fill="#FED6B5"/><path fill="#E5A128" d="M33.815 58.362L31.285 79H.9l7.177-26z"/></g></g></g><rect x="2" y="2" width="96" height="96" rx="48" stroke="#0078D4" stroke-width="4"/></g></svg>
